Papirus/48x48/apps/ente.svg

<svg width="48" height="48" version="1.1" xmlns="http://www.w3.org/2000/svg">
 <rect x="4" y="5" width="40" height="40" ry="7.8916726" style="opacity:.2"/>
 <rect x="4" y="4" width="40" height="40" ry="7.8916726" style="fill:#444444"/>
 <g>
  <path d="m19.3471 22.9999h9.3886c0-2.9796-2.6857-3.9998-4.7357-4-2.1458-1e-4 -4.6529 1.0811-4.6529 4zm-5.3458 2.2857c-0.0834-5.2259 3.9407-10.2856 10.0399-10.2856 5.3531 0 8.5193 3.6873 9.5119 7.3919 0.3625 1.3528 0.4469 2.2178 0.4469 3.608h-14.6529c0 1.9737 1.5622 4.9209 4.6529 5 3.0659 0 4.4105-1.8685 4.7357-2.4317l3.6952 2.3507c-1.4447 2.4354-3.5999 4.081-8.3897 4.081-4.5637 0-9.9403-3.4729-10.0399-9.7143z" style="opacity:.2"/>
  <path d="m19.3471 22h9.3886c0-2.9796-2.6857-3.9999-4.7357-4-2.1458-1e-4 -4.6529 1.0811-4.6529 4zm-5.3458 2.2857c-0.0834-5.226 3.9407-10.2856 10.0399-10.2856 5.3531 0 8.5193 3.6873 9.5119 7.3919 0.3625 1.3528 0.4469 2.2178 0.4469 3.608h-14.6529c0 1.9737 1.5622 4.9208 4.6529 5 3.0659 0 4.4105-1.8685 4.7357-2.4318l3.6952 2.3508c-1.4447 2.4353-3.5999 4.081-8.3897 4.081-4.5637 0-9.9403-3.473-10.0399-9.7143z" style="fill:#e6e6e6"/>
  <path d="m24.041 14c-6.0991 0-10.1225 5.0592-10.039 10.2852 0.0018 0.114 0.0083 0.2257 0.0136 0.3379 0.25-4.9826 4.1847-9.6231 10.0254-9.6231 5.3531 0 8.5191 3.688 9.5117 7.3926 0.2678 0.9994 0.3835 1.732 0.4258 2.6074h0.0215c0-1.3902-0.0848-2.2547-0.4473-3.6074-0.9926-3.7046-4.1586-7.3926-9.5117-7.3926zm-4.584 8c-0.0713 0.3063-0.1093 0.6389-0.1093 1h9.3886c0-0.3618-0.04-0.6943-0.1132-1zm-0.1093 4c0 1.9737 1.5616 4.9208 4.6523 5 3.0659 0 4.4112-1.8684 4.7363-2.4316l3.2325 2.0566c0.1614-0.2279 0.3177-0.4604 0.4628-0.7051l-3.6953-2.3515c-0.3251 0.5632-1.6704 2.4316-4.7363 2.4316-2.5994-0.0666-4.1123-2.1614-4.5293-4z" style="fill:#ffffff;opacity:.2"/>
 </g>
 <path d="M 11.892578,4 C 7.5205915,4 4,7.5205915 4,11.892578 v 1 C 4,8.5205914 7.5205915,5 11.892578,5 H 36.107422 C 40.479408,5 44,8.5205914 44,12.892578 v -1 C 44,7.5205915 40.479408,4 36.107422,4 Z" style="fill:#ffffff;opacity:.1"/>
</svg>

<svg xmlns="http://www.w3.org/2000/svg" width="48" height="48" version="1.1">
 <rect style="opacity:0.2" width="40" height="40" x="4" y="5" ry="8"/>
 <rect style="fill:#444444" width="40" height="40" x="4" y="4" ry="8"/>
 <path style="fill:#ffffff;opacity:0.1" d="M 12 4 C 7.568 4 4 7.568 4 12 L 4 13 C 4 8.568 7.568 5 12 5 L 36 5 C 40.432 5 44 8.568 44 13 L 44 12 C 44 7.568 40.432 4 36 4 L 12 4 z"/>
 <path style="opacity:0.2" d="M 19.347,23 H 28.736 C 28.736,20.02 26.05,19 24,19 21.854,19 19.347,20.081 19.347,23 Z M 14.001,25.286 C 13.918,20.06 17.942,15 24.041,15 29.394,15 32.56,18.687 33.553,22.392 33.916,23.745 34,24.61 34,26 H 19.347 C 19.347,27.974 20.909,30.921 24,31 27.066,31 28.41,29.131 28.736,28.568 L 32.431,30.919 C 30.986,33.354 28.831,35 24.041,35 19.477,35 14.101,31.527 14.001,25.286 Z"/>
 <path style="fill:#e6e6e6" d="M 19.347,22 H 28.736 C 28.736,19.02 26.05,18 24,18 21.854,18 19.347,19.081 19.347,22 Z M 14.001,24.286 C 13.918,19.06 17.942,14 24.041,14 29.394,14 32.56,17.687 33.553,21.392 33.916,22.745 34,23.61 34,25 H 19.347 C 19.347,26.974 20.909,29.921 24,30 27.066,30 28.41,28.131 28.736,27.568 L 32.431,29.919 C 30.986,32.354 28.831,34 24.041,34 19.477,34 14.101,30.527 14.001,24.286 Z"/>
 <path style="opacity:0.2;fill:#ffffff" d="M 24.041,14 C 17.942,14 13.919,19.059 14.002,24.285 14.004,24.399 14.01,24.511 14.016,24.623 14.266,19.641 18.2,15 24.041,15 29.394,15 32.56,18.688 33.553,22.393 33.821,23.392 33.936,24.125 33.979,25 H 34 C 34,23.61 33.915,22.745 33.553,21.393 32.56,17.688 29.394,14 24.041,14 Z M 19.457,22 C 19.386,22.306 19.348,22.639 19.348,23 H 28.736 C 28.736,22.638 28.696,22.306 28.623,22 Z M 19.348,26 C 19.348,27.974 20.909,30.921 24,31 27.066,31 28.411,29.132 28.736,28.568 L 31.969,30.625 C 32.13,30.397 32.287,30.165 32.432,29.92 L 28.736,27.568 C 28.411,28.132 27.066,30 24,30 21.401,29.933 19.888,27.839 19.471,26 Z"/>
</svg>
